svgs/mozilla_vpn.svg

<svg viewBox="0 0 192 192" xml:space="preserve" style="fill-rule:evenodd;clip-rule:evenodd;stroke-linejoin:round;stroke-miterlimit:2" xmlns="http://www.w3.org/2000/svg"><path d="M72.926 481.89 57.89 496.926a27.156 27.156 0 0 0-14.589-4.227C28.233 492.699 16 504.932 16 520c0 15.068 12.233 27.301 27.301 27.301 13.006 0 23.901-9.115 26.638-21.301h52.122a27.14 27.14 0 0 0 3.564 8.589l-15.036 15.036A27.156 27.156 0 0 0 96 545.398c-15.068 0-27.301 12.234-27.301 27.301C68.699 587.767 80.932 600 96 600c15.068 0 27.301-12.233 27.301-27.301a27.156 27.156 0 0 0-4.227-14.589l15.036-15.036a27.156 27.156 0 0 0 14.589 4.227C163.767 547.301 176 535.068 176 520c0-15.068-12.233-27.301-27.301-27.301-13.006 0-23.901 9.115-26.638 21.301H69.939a27.14 27.14 0 0 0-3.564-8.589l15.036-15.036A27.156 27.156 0 0 0 96 494.602c15.068 0 27.301-12.234 27.301-27.301C123.301 452.233 111.068 440 96 440c-15.068 0-27.301 12.233-27.301 27.301a27.156 27.156 0 0 0 4.227 14.589ZM96 557.398c8.445 0 15.301 6.857 15.301 15.301 0 8.445-6.856 15.301-15.301 15.301s-15.301-6.856-15.301-15.301c0-8.444 6.856-15.301 15.301-15.301Zm-37.4-37.589c-.101-8.356-6.918-15.11-15.299-15.11C34.856 504.699 28 511.555 28 520s6.856 15.301 15.301 15.301c8.381 0 15.198-6.754 15.299-15.11a6.035 6.035 0 0 1 0-.382Zm74.8.382c.101 8.356 6.918 15.11 15.299 15.11 8.445 0 15.301-6.856 15.301-15.301s-6.856-15.301-15.301-15.301c-8.381 0-15.198 6.754-15.299 15.11a6.035 6.035 0 0 1 0 .382ZM96 452c8.445 0 15.301 6.856 15.301 15.301 0 8.444-6.856 15.301-15.301 15.301s-15.301-6.857-15.301-15.301C80.699 458.856 87.555 452 96 452Z" style="fill-rule:evenodd;clip-rule:evenodd;stroke-linejoin:round;stroke-miterlimit:2" transform="translate(0 -424)"/></svg>

<?xml version="1.0" encoding="UTF-8" standalone="no"?>
<svg
   width="100%"
   height="100%"
   viewBox="0 0 192 192"
   version="1.1"
   xml:space="preserve"
   style="fill-rule:evenodd;clip-rule:evenodd;stroke-linejoin:round;stroke-miterlimit:2;"
   id="svg2023"
   sodipodi:docname="mozilla_vpn.svg"
   inkscape:version="1.2.1 (9c6d41e410, 2022-07-14)"
   xmlns:inkscape="http://www.inkscape.org/namespaces/inkscape"
   xmlns:sodipodi="http://sodipodi.sourceforge.net/DTD/sodipodi-0.dtd"
   xmlns="http://www.w3.org/2000/svg"
   xmlns:svg="http://www.w3.org/2000/svg"><defs
   id="defs2027" /><sodipodi:namedview
   id="namedview2025"
   pagecolor="#ffffff"
   bordercolor="#000000"
   borderopacity="0.25"
   inkscape:showpageshadow="2"
   inkscape:pageopacity="0.0"
   inkscape:pagecheckerboard="0"
   inkscape:deskcolor="#d1d1d1"
   showgrid="false"
   inkscape:zoom="5.3489583"
   inkscape:cx="96.093476"
   inkscape:cy="95.906524"
   inkscape:window-width="1274"
   inkscape:window-height="1303"
   inkscape:window-x="1282"
   inkscape:window-y="36"
   inkscape:window-maximized="0"
   inkscape:current-layer="svg2023" />
    <path
   d="M72.926,481.89L57.89,496.926C53.67,494.25 48.665,492.699 43.301,492.699C28.233,492.699 16,504.932 16,520C16,535.068 28.233,547.301 43.301,547.301C56.307,547.301 67.202,538.186 69.939,526L122.061,526C122.756,529.094 123.977,531.99 125.625,534.589L110.589,549.625C106.369,546.949 101.364,545.398 96,545.398C80.932,545.398 68.699,557.632 68.699,572.699C68.699,587.767 80.932,600 96,600C111.068,600 123.301,587.767 123.301,572.699C123.301,567.335 121.75,562.33 119.074,558.11L134.11,543.074C138.33,545.75 143.335,547.301 148.699,547.301C163.767,547.301 176,535.068 176,520C176,504.932 163.767,492.699 148.699,492.699C135.693,492.699 124.798,501.814 122.061,514L69.939,514C69.244,510.906 68.023,508.01 66.375,505.411L81.411,490.375C85.631,493.051 90.636,494.602 96,494.602C111.068,494.602 123.301,482.368 123.301,467.301C123.301,452.233 111.068,440 96,440C80.932,440 68.699,452.233 68.699,467.301C68.699,472.665 70.25,477.67 72.926,481.89ZM96,557.398C104.445,557.398 111.301,564.255 111.301,572.699C111.301,581.144 104.445,588 96,588C87.555,588 80.699,581.144 80.699,572.699C80.699,564.255 87.555,557.398 96,557.398ZM58.6,519.809C58.499,511.453 51.682,504.699 43.301,504.699C34.856,504.699 28,511.555 28,520C28,528.445 34.856,535.301 43.301,535.301C51.682,535.301 58.499,528.547 58.6,520.191C58.598,520.128 58.597,520.064 58.597,520C58.597,519.936 58.598,519.872 58.6,519.809ZM133.4,520.191C133.501,528.547 140.318,535.301 148.699,535.301C157.144,535.301 164,528.445 164,520C164,511.555 157.144,504.699 148.699,504.699C140.318,504.699 133.501,511.453 133.4,519.809C133.402,519.872 133.403,519.936 133.403,520C133.403,520.064 133.402,520.128 133.4,520.191ZM96,452C104.445,452 111.301,458.856 111.301,467.301C111.301,475.745 104.445,482.602 96,482.602C87.555,482.602 80.699,475.745 80.699,467.301C80.699,458.856 87.555,452 96,452Z"
   id="path2017"
   style="fill-rule:evenodd;clip-rule:evenodd;stroke-linejoin:round;stroke-miterlimit:2"
   transform="translate(0,-424)"
   inkscape:label="mozilla_vpn" />
</svg>
